public/library/ergonia-icon-light.svg

<svg width="632" height="221" viewBox="0 0 632 221" fill="none" xmlns="http://www.w3.org/2000/svg">
<path d="M119.682 147.679V69.1438H136.143V84.2478H136.898C139.164 76.243 145.959 69.1438 158.494 69.1438H162.874V85.0029H156.38C143.39 85.0029 136.143 89.3828 136.143 97.5381V147.679H119.682Z" fill="#E7EFFF"/>
<path d="M208.724 179.44C183.049 179.44 173.08 172.494 173.08 160.561C173.08 151.951 178.215 147.271 186.521 145.457V143.796C180.781 141.982 177.61 137.605 177.61 131.712C177.61 123.557 183.954 119.631 191.505 117.818V117.213C182.294 112.833 177.159 104.527 177.159 93.9536C177.159 77.944 188.485 67.0721 208.423 67.0721C213.708 67.0721 218.542 67.8272 222.619 69.4878V67.3731C222.619 60.4243 225.94 56.1975 232.889 56.1975H244.97V69.4878H228.96V72.6585C236.06 77.3421 239.985 84.8928 239.985 93.9536C239.985 109.813 228.506 120.534 208.571 120.534C204.795 120.534 201.171 120.08 198.301 119.325C194.375 120.685 190.75 123.251 190.75 127.179C190.75 131.409 194.826 133.069 201.775 133.069H221.106C240.437 133.069 248.592 141.225 248.592 154.819C248.592 171.129 236.962 179.435 208.721 179.435L208.724 179.44ZM218.841 147.725H192.26C188.635 149.839 186.824 153.01 186.824 156.785C186.824 163.13 191.505 167.51 203.739 167.51H214.009C226.848 167.51 233.19 163.885 233.19 156.635C233.19 151.199 229.565 147.725 218.843 147.725H218.841ZM223.825 95.3186V92.2984C223.825 83.388 218.239 79.0081 208.571 79.0081C198.903 79.0081 193.316 83.388 193.316 92.2984V95.3186C193.316 104.229 198.903 108.609 208.571 108.609C218.239 108.609 223.825 104.229 223.825 95.3186Z" fill="#E7EFFF"/>
<path d="M258.454 106.645C258.454 81.5743 272.649 65.5647 294.549 65.5647C316.449 65.5647 330.645 81.5743 330.645 106.645C330.645 131.715 316.449 147.725 294.549 147.725C272.649 147.725 258.454 131.715 258.454 106.645ZM313.278 113.29V99.9996C313.278 86.1047 305.727 79.1586 294.552 79.1586C283.376 79.1586 275.826 86.1047 275.826 99.9996V113.29C275.826 127.185 283.376 134.131 294.552 134.131C305.727 134.131 313.278 127.185 313.278 113.29Z" fill="#E7EFFF"/>
<path d="M350.553 147.658V69.1224H367.014V82.1117H367.769C371.09 73.6528 377.738 67.3113 389.819 67.3113C405.829 67.3113 415.344 78.4868 415.344 97.8176V147.658H398.883V99.9324C398.883 87.6981 394.199 81.5071 384.082 81.5071C375.473 81.5071 367.017 85.887 367.017 95.0983V147.658H350.556H350.553Z" fill="#E7EFFF"/>
<path d="M435.021 69.1438H451.482V147.679H435.021V69.1438Z" fill="#E7EFFF"/>
<path d="M534.86 145.911C526.25 145.911 521.72 140.475 520.664 132.771H519.909C516.888 142.59 508.43 147.725 496.95 147.725C480.79 147.725 471.579 138.511 471.579 124.315C471.579 108.759 483.209 100.755 505.108 100.755H519.304V94.1095C519.304 84.5946 514.169 79.0054 503.144 79.0054C493.93 79.0054 488.344 83.5359 484.418 89.7296L474.599 80.8192C479.734 72.0594 488.948 65.5647 504.2 65.5647C524.439 65.5647 535.765 75.5337 535.765 93.0508V132.47H544.071V145.911H534.857H534.86ZM519.304 122.654V111.328H505.409C493.93 111.328 488.344 115.104 488.344 121.899V124.619C488.344 131.565 493.479 135.189 501.634 135.189C511.753 135.189 519.304 130.355 519.304 122.654Z" fill="#E7EFFF"/>
<path d="M601.905 132.398H559.723V145.93H601.905V132.398Z" fill="#E7EFFF"/>
<path d="M75.2569 86.5883H41.8297V100.12H75.2569V86.5883Z" fill="#E7EFFF"/>
<path d="M92.7041 132.406H41.8297V145.938H92.7041V132.406Z" fill="#E7EFFF"/>
<path d="M92.868 40.771H41.8297V54.3031H92.868V40.771Z" fill="#E7EFFF"/>
<path d="M451.482 40.771H435.021V54.3031H451.482V40.771Z" fill="#E7EFFF"/>
</svg>

<svg xmlns="http://www.w3.org/2000/svg" width="632" height="221" fill="none" viewBox="0 0 632 221"><path fill="#e7efff" d="M119.682 147.679V69.144h16.461v15.104h.755c2.266-8.005 9.061-15.104 21.596-15.104h4.38v15.859h-6.494c-12.99 0-20.237 4.38-20.237 12.535v50.141zM208.724 179.44c-25.675 0-35.644-6.946-35.644-18.879 0-8.61 5.135-13.29 13.441-15.104v-1.661c-5.74-1.814-8.911-6.191-8.911-12.084 0-8.155 6.344-12.081 13.895-13.894v-.605c-9.211-4.38-14.346-12.686-14.346-23.26 0-16.009 11.326-26.88 31.264-26.88 5.285 0 10.119.754 14.196 2.415v-2.115c0-6.949 3.321-11.176 10.27-11.176h12.081v13.29h-16.01v3.172c7.1 4.683 11.025 12.234 11.025 21.295 0 15.859-11.479 26.58-31.414 26.58-3.776 0-7.4-.454-10.27-1.209-3.926 1.36-7.551 3.926-7.551 7.854 0 4.23 4.076 5.89 11.025 5.89h19.331c19.331 0 27.486 8.156 27.486 21.75 0 16.31-11.63 24.616-39.871 24.616zm10.117-31.715H192.26c-3.625 2.114-5.436 5.285-5.436 9.06 0 6.345 4.681 10.725 16.915 10.725h10.27c12.839 0 19.181-3.625 19.181-10.875 0-5.436-3.625-8.91-14.347-8.91zm4.984-52.406v-3.02c0-8.911-5.586-13.29-15.254-13.29s-15.255 4.379-15.255 13.29v3.02c0 8.91 5.587 13.29 15.255 13.29s15.254-4.38 15.254-13.29M258.454 106.645c0-25.07 14.195-41.08 36.095-41.08s36.096 16.01 36.096 41.08-14.196 41.08-36.096 41.08-36.095-16.01-36.095-41.08m54.824 6.645V100c0-13.895-7.551-20.841-18.726-20.841-11.176 0-18.726 6.946-18.726 20.84v13.291c0 13.895 7.55 20.841 18.726 20.841s18.726-6.946 18.726-20.841M350.553 147.658V69.122h16.461v12.99h.755c3.321-8.46 9.969-14.8 22.05-14.8 16.01 0 25.525 11.175 25.525 30.506v49.84h-16.461V99.932c0-12.234-4.684-18.425-14.801-18.425-8.609 0-17.065 4.38-17.065 13.591v52.56h-16.464M435.021 69.144h16.461v78.535h-16.461zM534.86 145.911c-8.61 0-13.14-5.436-14.196-13.14h-.755c-3.021 9.819-11.479 14.954-22.959 14.954-16.16 0-25.371-9.214-25.371-23.41 0-15.556 11.63-23.56 33.529-23.56h14.196V94.11c0-9.515-5.135-15.105-16.16-15.105-9.214 0-14.8 4.53-18.726 10.725l-9.819-8.91c5.135-8.76 14.349-15.255 29.601-15.255 20.239 0 31.565 9.969 31.565 27.486v39.419h8.306v13.441h-9.214zm-15.556-23.257v-11.326h-13.895c-11.479 0-17.065 3.776-17.065 10.571v2.72c0 6.946 5.135 10.57 13.29 10.57 10.119 0 17.67-4.834 17.67-12.535M601.905 132.398h-42.182v13.532h42.182zM75.257 86.588H41.83v13.532h33.427zM92.704 132.406H41.83v13.532h50.874zM92.868 40.771H41.83v13.532h51.038zM451.482 40.771h-16.461v13.532h16.461z"/></svg>
